!!!!SEGMENT: sonata04-3.krn
!!!COM: Beethoven, Ludwig van
!!!CDT: 1770///-1827///
!!!OTL: Piano Sonata no. 4 in E-flat major
!!!OTP: grand sonata
!!!ODE: a Madame la Comtesse Babette de Keglevics
!!!OMD: Allegro
!!!OPS: 7
!!!OMV: 3
!!!AGN: Sonata
**kern	**kern	**dynam
*staff2	*staff1	*staff1/2
*Ipiano	*Ipiano	*Ipiano
*>[A,A,B,B,C,C,D,A,B]	*>[A,A,B,B,C,C,D,A,B]	*>[A,A,B,B,C,C,D,A,B]
*>norep[A,B,C,D,A,B]	*>norep[A,B,C,D,A,B]	*>norep[A,B,C,D,A,B]
*>A	*>A	*>A
*clefF4	*clefG2	*
*E-:	*E-:	*
*k[b-e-a-]	*k[b-e-a-]	*
*E-:	*E-:	*
*M3/4	*M3/4	*
*MM132	*MM132	*
=1-	=1-	=1-
!	!	!LO:DY:t=%s dolce
4r	2B- 2e- 2g (>2b-	p
(<4E-	.	.
4G	4g	.
=2	=2	=2
*^	*^	*
[2.B-	4B-	4e-	4ryy	.
.	4G	4g	[2g	.
.	4E-)	4b-)	.	.
=3	=3	=3	=3	=3
(2B-]	2.BB-	(4ee-	2g]	.
.	.	4gg	.	.
4A-	.	8ffL	4f	.
.	.	8ddJ)	.	.
=4	=4	=4	=4	=4
4G)	4E-	8ee-L	4g	.
.	.	8ggJ	.	.
4r	4ryy	4b-/	4ryy	.
4r	4ryy	4r	4ryy	.
*	*	*v	*v	*
=5	=5	=5	=5
2e-	(4A-	(8ccL	.
.	.	8ee-J	.
.	4G)	4b-)	.
4r	4ryy	4r	.
=6	=6	=6	=6
*	*	*^	*
2B-	(4D	(8a-L	4f	.
.	.	8b-J	.	.
.	4E-)	4g)	4e-	.
4r	4ryy	4r	4ryy	.
*v	*v	*	*	*
*	*v	*v	*
=7	=7	=7
(<4BB- 4B-	(4d 4f	.
4D) 4B-	4f) 4a-	.
4E-' 4B-'	4e-' 4g'	.
=8	=8	=8
4BB-' 4B-'	4d' 4f'	.
4r	4r	.
4r	4r	.
!!LO:LB:g=original
=9	=9	=9
4r	2B- 2e- 2g (>2b-	.
(<4E-	.	.
4G	4g	.
=10	=10	=10
*^	*^	*
[2.B-	4B-	4e-	4ryy	.
.	4G	4g	[2g	<
.	4E-	[4b-)	.	.
*v	*v	*	*	*
=11	=11	=11	=11
2BB- 2B-]	(4ee-	2g] 2b-]	.
.	4gg)	.	.
4BBn 4Bn	(8ffL	4f 4a-	.
.	8ddJ	.	.
=12	=12	=12	=12
4C 4c)	4ee-')	4e- 4g	.
4r	4r	4ryy	.
4r	4r	4ryy	.
=13	=13	=13	=13
4r	4r	4ryy	.
4r	(>4ff/	4ryy	pp
((4AAn 4F 4An	8ee-L	4f	.
.	8ccJ	.	.
=14	=14	=14	=14
4BB-' 4F' 4B-'))	4dd')	4f	.
4r	4r	4ryy	.
4r	4r	4ryy	.
*	*v	*v	*
=15	=15	=15
4r	4r	.
4r	4r	.
4An 4c [4f	(8eee-L	.
.	8cccJ	.
=16	=16	=16
*^	*	*
4ryy	4B- 4d 4f]	8dddL	.
.	.	8fffJ)	.
[2f	4c 4e-	4ff'	sf
.	(>4An 4c	(8eee-L	.
.	.	8cccJ	.
=17	=17	=17	=17
4ryy	4B- 4d 4f])	8dddL	.
.	.	8fffJ)	.
[2f	4c 4e-	4ff'	sf
.	(>4An 4c	(8eee-L	.
.	.	8cccJ	.
!!LO:LB:g=original
=18	=18	=18	=18
4ryy	4B- 4d 4f])	8dddL	.
.	.	8fffJ)	.
[2f	4c 4e-	4ff'	sf
.	4An (>4c	(8eee-L	.
.	.	8cccJ)	.
*v	*v	*	*
=19	=19	=19
4B- 4d) 4f]	8dddL	.
.	8fff	.
4r	8eee-	.
.	8ddd	.
!LO:DY:rj	!	!
(4Enz	8ccc	.
.	8bb-J	.
=20	=20	=20
4F)	8aanL	.
.	8bb-	.
4r	8ddd	.
.	8ff	.
4FF'	8ccc	.
.	8ee-J	.
=21	=21	=21
4BB-'	8dd 8bb-L	.
.	8ff	.
4r	8ee-	.
.	8dd	.
!LO:DY:rj	!	!
(4EEnz	8cc	.
.	8b-J	.
=22	=22	=22
4FF)	8anL	.
.	8b-	.
4r	8dd	.
.	8f	.
4FFF' 4FF'	8cc	.
.	8e-J	.
=23	=23	=23
4BBB-' 4BB-'	8d 8b-L	.
.	8f	.
4rEE	8d	.
.	8B-	.
4rEE	8F<	.
.	8D<J	.
=24	=24	=24
4BBB-' 4BB-'	2.r	.
4r	.	.
4r	.	.
!!LO:LB:g=original
=25:|!|:	=25:|!|:	=25:|!|:
*>B	*>B	*>B
!	!	!LO:DY:b=2
(2B-	2.r	p
4G	.	.
=26	=26	=26
4En	(2b-	p
4G	.	.
4B-)	4g	.
=27	=27	=27
(2d-	4en	.
.	4g	<
4B-	4b-	.
=28	=28	=28
4G	2dd-	.
4B-	.	.
4d-)	4b-	.
=29	=29	=29
(2en	4g	.
.	4b-	.
4d-	4dd-	.
=30	=30	=30
4B-	2een	.
4d-	.	.
4en)	4dd-)	.
*clefG2	*	*
=31	=31	=31
[2.g [2.b-	(4b-	.
.	4dd-	.
.	4een	.
=32	=32	=32
2.g] 2.b-]	4gg	.
.	4ff	.
.	4een)	.
=33	=33	=33
[2.a- [2.cc	(4een	.
.	4ff)	.
.	4ffT	.
.	(32qeeLLL	.
.	32qffJJJ)	.
=34	=34	=34
2.a-] 2.cc]	(4aa-^<	.
.	4gg	.
.	4ff)	.
!!LO:LB:g=original
=35	=35	=35
[2.g [2.b- [2.dd-	4r	.
.	4een	.
.	4ee	.
=36	=36	=36
.	(<een8q/	.
2.g] 2.b-] 2.dd-]	(4gg^<)	.
.	4ff	.
.	4ee)	.
=37	=37	=37
[2.a- [2.cc	4r	.
.	4ff	.
.	4ff	.
=38	=38	=38
.	(<ff8q/	.
2.a-] 2.cc]	(4aa-^<)	.
.	4gg	.
.	4ff)	.
=39	=39	=39
!	!LO:TX:i:c:t=mancando	!
[2.f [2.a-	(4ee-	.
.	4dd)	.
.	4dd'	.
=40	=40	=40
.	(<dd8q/	.
2.f] 2.a-]	(4ff)	.
.	4ee-	.
.	4dd	.
=41	=41	=41
[2.d [2.f	4cc	.
.	4b-	.
.	4an\	.
=42	=42	=42
2.d] 2.f]	4b-	pp
.	4cc	.
.	4a-X\)	.
*clefF4	*	*
=43	=43	=43
4r	2B- 2e- 2g (>2b-	.
!	!LO:TX:i:c:t=dolce	!
(<4E-	.	.
4G	4g	.
=44	=44	=44
*^	*^	*
[2.B-	4B-	4e-	4ryy	.
.	4G	4g	[2g	.
.	4E-	[4b-)	.	.
*	*	*v	*v	*
!!LO:LB:g=original
=45	=45	=45	=45
*	*	*^	*
*	*	*	*^	*
2.B-_	2BB-	(4ee-	2.b-/_	2g\]	.
.	.	4gg	.	.	.
.	4AA-	8ffL	.	4f\	.
.	.	8ddJ)	.	.	.
*	*	*	*v	*v	*
=46	=46	=46	=46	=46
4B-]	4GG)	(8ee-L	4g 4b-]	.
.	.	8ggJ	.	.
4r	4ryy	4b-/)	4ryy	.
4r	4ryy	4r	4ryy	.
*	*	*v	*v	*
=47	=47	=47	=47
2e-	(4A-	(8ccL	.
.	.	8ee-J	.
.	4G)	4b-)	.
4r	4ryy	4r	.
=48	=48	=48	=48
*	*	*^	*
2B-	(4D	(8a-L	4f	.
.	.	8b-J	.	.
.	4E-)	4g)	4e-	.
4r	4ryy	4r	4ryy	.
*v	*v	*	*	*
*	*v	*v	*
=49	=49	=49
(<4BB- 4B-	(4d 4f	.
4D) 4B-	4f) 4a-	.
4E-' 4B-'	4e-' 4g'	.
=50	=50	=50
4BB-' 4B-'	4d' 4f'	.
4r	4r	.
4r	4r	.
=51	=51	=51
4r	2B- 2e- 2g- (>2b-	.
(<4E-	.	.
4G-	4g-	.
=52	=52	=52
*^	*^	*
[2.B-	4B-	4e-	4ryy	.
.	4G-	4g-	[2g-	<
.	4E-	[<4b-)	.	.
=53	=53	=53	=53	=53
2.B-]	2.BB-)	(4ee-	2g-X] 2b-]	[ >
.	.	4gg-	.	.
.	.	8ffL	4f 4a-	.
.	.	8ddJ)	.	.
*v	*v	*	*	*
=54	=54	=54	=54
4C- 4c-	4ee-	4e- 4g-	.
4r	4r	4r	]
4r	4r	4r	.
!!LO:LB:g=original
=55	=55	=55	=55
4r	4r	4ryy	.
4r	4r	4ryy	.
(4BB- [4G- 4B-	(8ff-L	[4g-	pp
.	8dd-J	.	.
=56	=56	=56	=56
4C- 4G-X] 4c-)	4ee-)	4g-]	.
4r	4r	4ryy	.
(4BB- [<4G- 4B-	(8ff-L	[4g-	.
.	8dd-J	.	.
=57	=57	=57	=57
4C- 4G-X] 4c-)	4ee-)	4g-]	.
4r	4r	4ryy	.
4BB- 4G- 4B-	(8ff-L	[4g-	.
.	8dd-J	.	.
=58	=58	=58	=58
*^	*	*	*
[2.c-	2C-	4ee-)	4g-]	.
.	.	[2gg-^	2g-	.
.	4E-	.	.	.
=59	=59	=59	=59	=59
2c-]	2.F-	(4gg-]	2.a-	<
.	.	[2ff-)	.	.
[4d-	.	.	.	.
=60	=60	=60	=60	=60
2d-]	[2.G-	(4ff-]	4b-	[
.	.	2ee-)	[2cc-	>
4e-	.	.	.	.
=61	=61	=61	=61	=61
4f-	2.G-]	2.dd-	4cc-X]	.
4g-	.	.	2b-	]
4f-	.	.	.	.
*v	*v	*	*	*
=62	=62	=62	=62
*^	*	*	*
4e-	[2.c-	4ee-	4cc-	.
4re	.	[2gg-	2g-	.
4E-\	.	.	.	.
=63	=63	=63	=63	=63
2c-X]	2.F-	(4gg-]	2.a-	<
.	.	[2ff-)	.	.
[4d-	.	.	.	.
!!LO:LB:g=original
=64	=64	=64	=64	=64
2d-]	2.G-	(4ff-X]	4b-	;
.	.	[2ee-)	2cc-	.
[4e-	.	.	.	[
=65	=65	=65	=65	=65
2e-]	2.Gn	(4ee-]	2.b-	>
.	.	[2dd-)	.	.
[4e-	.	.	.	.
*	*	*v	*v	*
=66	=66	=66	=66
2e-]	2.A-	(4dd-]	.
.	.	[2cc-)	]
[4e-	.	.	.
=67	=67	=67	=67
2e-]	2.B-	4cc-]	.
.	.	[2b-	.
[4e-	.	.	.
=68	=68	=68	=68
2e-]	2.c-	4b-]	.
.	.	4an	pp
4e-	.	4r	.
*v	*v	*	*
=69	=69	=69
2.r	2.r	.
=70	=70	=70
4B-	4r	.
4r	4b-	<
4r	4b-	.
=71	=71	=71
*	*^	*
4r	4ryy	4b-	.
4r	4ryy	4b-	.
*clefG2	*	*	*
(8fL	(8aa-L	4b-	.
8dJ	8ffJ	.	.
=72	=72	=72	=72
4e-')	4gg)	4b-	.
4B-	4b-	4b-	.
(8a-L	(8ffL	4b-	.
8fJ	8ddJ	.	.
!!LO:LB:g=original
=73	=73	=73	=73
4g')	4ee-)	4b-	.
4B-	4b-	4b-	.
(8fL	(8aa-L	4b-	.
8dJ	8ffJ	.	.
=74	=74	=74	=74
4e-')	4gg')	4b-	.
4B-	4b-	4b-	.
(8a-L	(8ffL	4b-	.
8fJ	8ddJ	.	.
=75	=75	=75	=75
4g')	4ee-	4ee-)	.
4e-	4ee-	4ee-	.
(8a-L	(8cccL	4ee-	f
8fJ	8aa-J	.	.
=76	=76	=76	=76
4g')	4bb-)	4ee-	.
4e-	4ee-	4ee-	.
(<8ccL>	(8aa-L	4ee-	.
8anJ	8ff#J	.	.
=77	=77	=77	=77
4b-'/)	4gg)	4ee-	.
4e-	4ee-	4ee-	.
(8a-L	(8cccL	4ee-	.
8fnJ	8aa-J	.	.
=78	=78	=78	=78
4g')	4bb-)	4ee-	.
4e-	4ee-	4ee-	.
(8ccL>	(8aa-L	4ee-	.
8anJ	8ff#J	.	.
=79	=79	=79	=79
4b-'/)	4gg)	4ee-	.
4e-	4ee-	4ee-	.
*clefF4	*	*	*
((4G [4e- 4g	(8ddd-L	4ee-	ff
.	8bb-J	.	.
*	*v	*v	*
!!LO:LB:g=original
=80	=80	=80
4A- 4e-] 4a-))	8cccL	.
.	8eee-)	.
4r	8dddn	.
.	8ccc	.
!LO:DY:rj	!	!
(4A-z	8bb-	.
.	8aa-J	.
=81	=81	=81
4B-)	8ggL	.
.	8bb-	.
4r	8eee-	.
.	8gg	.
!LO:DY:rj	!	!
4Bnz 4fz (4a-z	8ddd	.
.	8ffJ	.
=82	=82	=82
4c 4e- 4g)	8eee-L	.
.	8ee-	.
4r	8dd	.
.	8cc	.
!LO:DY:rj	!	!
(4AA-z	8b-	.
.	8a-J	.
=83	=83	=83
4BB-)	8gL	.
.	8b-	.
4r	8ee-	.
.	8g	.
!LO:DY:rj	!	!
4BBnz 4Fz (((4A-z	8dd	.
.	8fJ	.
=84	=84	=84
4C 4E- 4G)))	8ee-L	.
.	8e-	.
4r	8d	.
.	8c	.
!LO:DY:rj	!	!
(4AAA-z	8B-	.
.	8A-J	.
=85	=85	=85
4BBB-)	8GL	.
.	8B-	.
4BB-	8e-	.
.	8G	.
4BB-	8d	.
.	8FJ	.
=86	=86	=86
*^	*	*
4r	[2.EE-	4G 4e-	.
4E-	.	4r	.
4E-	.	4r	.
!!LO:LB:g=original
=87	=87	=87	=87
!	!	!	!LO:DY:rj
(4D-	2.EE-_	2.G 2.B- 2.e- 2.g	f
4E-	.	.	.
4BB-	.	.	.
=88	=88	=88	=88
4C	2.EE-_	2.A- 2.c 2.e- 2.a-	.
4E-	.	.	.
4AA-	.	.	.
=89	=89	=89	=89
4Dn	2.EE-]	2.A- 2.d 2.b-	.
4F	.	.	.
4BB-)	.	.	.
*v	*v	*	*
=90	=90	=90
[<2.E-	4G 4e-	.
.	4ee-	.
.	4ee-	.
=91	=91	=91
2.E-_ 2.G 2.B-	(4dd-	.
.	4ee-	.
.	4b-	.
=92	=92	=92
2.E-] 2.A- 2.c	4cc	.
.	4ee-	.
.	4a-\	.
=93	=93	=93
*	*^	*
2.E- 2.F 2.A- 2.B- 2.d	4ddn	2.f 2.a-	.
.	4ff	.	.
.	4b-)	.	.
*	*v	*v	*
=94	=94	=94
4E-' 4G' 4B-' 4e-'	N(>8g 8ee-L	.
.	8b-	.
4r	8g	.
.	8e-	.
4r	8B-	.
.	8GJ	.
=95	=95	=95
4EE- 4E-N)	2.r	.
4r	.	.
4r	.	.
!!LO:LB:g=original
!!LO:TX:b:i:rj:t=Fin
=96:|!|:	=96:|!|:	=96:|!|:
*>C	*>C	*>C
*k[b-e-a-d-g-c-]	*k[b-e-a-d-g-c-]	*
*e-:	*e-:	*
!!LO:TX:a:B:t=Minore
4r	4B-	pp
=97	=97	=97
(12EE-L	(12G-L	.
12BB-	12B-	.
12E-J)	12g-J)	.
*Xtuplet	*Xtuplet	*
12EE-L	12G-L	.
12BB-	12B-	.
12E-J	12g-J	.
12EE-L	12G-L	.
12BB-	12B-	.
12E-J	12g-J	.
=98	=98	=98
12EE-L	12G-L	.
12BB-	12B-	.
12E-J	12g-J	.
12DDnL	12FL	.
12BB-	12B-	.
12DnJ	12fJ	.
12EE-L	12G-L	.
12BB-	12B-	.
12E-J	12g-J	.
=99	=99	=99
12FFL	12A-L	fp
12BB-	12B-	.
12FJ	12a-J	.
12FFL	12A-L	.
12BB-	12B-	.
12FJ	12a-J	.
12FFL	12A-L	.
12BB-	12B-	.
12FJ	12a-J	.
=100	=100	=100
12FFL	12A-L	.
12BB-	12B-	.
12FJ	12a-J	.
12FFL	12A-L	.
12BB-	12B-	.
12FJ	12a-J	.
12FFL	12A-L	.
12BB-	12B-	.
12FJ	12a-J	.
!!LO:LB:g=original
=101	=101	=101
12EE-L	12G-L	.
12BB-	12B-	.
12E-J	12g-J	.
12EE-L	12G-L	.
12BB-	12B-	.
12E-J	12g-J	.
12EE-L	12G-L	.
12BB-	12B-	.
12E-J	12g-J	.
=102	=102	=102
12EE-L	12G-L	.
12BB-	12B-	.
12E-J	12g-J	.
12DDnL	12FL	.
12BB-	12B-	.
12DnJ	12fJ	.
12EE-L	12G-L	.
12BB-	12B-	.
12E-J	12g-J	.
=103	=103	=103
12FFL	12A-L	fp
12D-	12d-	.
12FJ	12a-J	.
12FFL	12A-L	.
12D-	12d-	.
12FJ	12a-J	.
12FFL	12A-L	.
12D-	12d-	.
12FJ	12a-J	.
=104	=104	=104
12FFL	12A-L	.
12D-	12d-	.
12FJ	12a-J	.
12FFL	12A-L	.
12D-	12d-	.
12FJ	12a-J	.
12FFL	12A-L	.
12D-	12d-	.
12FJ	12a-J	.
!!LO:LB:g=original
=105	=105	=105
12GG-L	12B-L	<
12D-	12d-	.
12G-J	12b-J	.
12GG-L	12B-L	.
12D-	12d-	.
12G-J	12b-J	.
12GG-L	12B-L	.
12D-	12d-	.
12G-J	12b-J	.
=106	=106	=106
12GGG-L	12B-L	.
12DD-	12d-	.
12GG-J	12b-J	.
12GGG-L	12B-L	.
12DD-	12d-	.
12GG-J	12b-J	.
12GGG-L	12B-L	.
12DD-	12d-	.
12GG-J	12b-J	[
=107	=107	=107
12CC-L	12B-L	p
12EE-	12e-	.
12C-J	12b-J	.
12CC-L	12A-L	.
12EE-	12e-	.
12C-J	12a-J	.
12CC-L	12A-L	.
12EE-	12e-	.
12C-J	12a-J	.
=108	=108	=108
12CC-L	12A-L	>
12EE-	12e-	.
12C-J	12a-J	.
12CC-L	12G-L	.
12EE-	12A-	.
12C-J	12g-J	.
12CC-L	12G-L	.
12EE-	12A-	.
12C-J	12g-J	.
!!LO:LB:g=original
=109	=109	=109
12CC-L	12G-L	.
12EE-	12A-	.
12C-J	12g-J	.
12CC-L	12FL	.
12EE-	12A-	.
12C-J	12fJ	.
12CC-L	12FL	.
12EE-	12A-	.
12C-J	12fJ	.
=110	=110	=110
12CC-L	12FL	.
12EE-	12A-	.
12C-J	12fJ	.
12CC-L	12G-L	.
12EE-	12An	.
12C-J	12g-J	.
12CC-L	12E-L	.
12EE-	12A	.
12C-J	12e-J	.
=111	=111	=111
!	!	!LO:DY:rj
4BBB- 4BB-	4Dn< 4B- 4dn	pp
4BB- 4F	4B- 4d 4f	.
4BB- 4F	4B- 4d 4f	.
=112	=112	=112
4BB- 4F	4B- 4dn 4f	.
4r	4r	.
=:|!	=:|!	=:|!
*>D	*>D	*>D
4r	4f	.
!!LO:LB:g=original
=113	=113	=113
12BB-L	12d-XL	p
12F	12f	.
12B-J	12dd-J	.
12BB-L	12d-L	.
12F	12f	.
12B-J	12dd-J	.
12BB-L	12d-L	.
12F	12f	.
12B-J	12dd-J	.
=114	=114	=114
12BB-L	12d-L	.
12F	12f	.
12B-J	12dd-J	.
12AAnL	12cnL	.
12F	12f	.
12AnJ	12ccnJ	.
12BB-L	12d-L	.
12F	12f	.
12B-J	12dd-J	.
=115	=115	=115
12CnL	12e-L	fp
12F	12f	.
12cnJ	12ee-J	.
12CL	12e-L	.
12F	12f	.
12cJ	12ee-J	.
12CL	12e-L	.
12F	12f	.
12cJ	12ee-J	.
=116	=116	=116
12CnL	12e-L	.
12F	12f	.
12cnJ	12ee-J	.
12CL	12e-L	.
12F	12f	.
12cJ	12ee-J	.
12CL	12e-L	.
12F	12f	.
12cJ	12ee-J	.
!!LO:LB:g=original
=117	=117	=117
12BB-L	12d-L	.
12F	12f	.
12B-J	12dd-J	.
12BB-L	12d-L	.
12F	12f	.
12B-J	12dd-J	.
12BB-L	12d-L	.
12F	12f	.
12B-J	12dd-J	.
=118	=118	=118
12BB-L	12d-L	.
12F	12f	.
12B-J	12dd-J	.
12AAnL	12cnL	.
12F	12f	.
12AnJ	12ccnJ	.
12BB-L	12d-L	.
12F	12f	.
12B-J	12dd-J	.
=119	=119	=119
12AA-XL	12dnL	fp
12BB-	12b-	.
12A-XJ	12ddnJ	.
12AA-L	12dL	.
12BB-	12b-	.
12A-J	12ddJ	.
12AA-L	12dL	.
12BB-	12b-	.
12A-J	12ddJ	.
=120	=120	=120
12AA-L	12dnL	.
12BB-	12b-	.
12A-J	12ddnJ	.
12AA-L	12dL	.
12BB-	12b-	.
12A-J	12ddJ	.
12AA-L	12dL	.
12BB-	12b-	.
12A-J	12ddJ	.
!!LO:LB:g=original
=121	=121	=121
12GG-L<	12e-L<	.
12BB-	12b-	.
12G-J	12ee-J	.
12GG-L<	12e-L<	.
12BB-	12b-	.
12G-J	12ee-J	.
12DDnL	12fL	.
12BB-	12b-	.
12DnJ	12ffJ	.
=122	=122	=122
12EE-L	12g-L	.
12BB-	12b-	.
12E-J	12gg-J	.
12EE-L	12g-L	.
12BB-	12b-	.
12E-J	12gg-J	.
12CC-L	12anL	.
12EE-	12ee-	.
12C-J	12aanJ	.
=123	=123	=123
4BBB- 4BB-	12b-L	f
.	12ddn	.
.	12bb-J	.
4r	12a-XL	.
.	12cc-X	.
.	12aa-XJ	.
4r	12g-L	.
.	12b-	.
.	12gg-J	.
=124	=124	=124
2.r	12fL	.
.	12a-	.
.	12ffJ	.
.	12e-L<	.
.	12g-	.
.	12ee-J	.
.	12dnL<	.
.	12f	.
.	12ddnJ	.
!!LO:LB:g=original
=125	=125	=125
12EE-L	12e-L	p
12BB-	12g-	.
12E-J	12ee-J	.
12EE-L	12G-L	.
12BB-	12B-	.
12E-J	12g-J	.
12EE-L	12G-L	.
12BB-	12B-	.
12E-J	12g-J	.
=126	=126	=126
12EE-L	12G-L	.
12BB-	12B-	.
12E-J	12g-J	.
12DDnL	12FL	.
12BB-	12B-	.
12DnJ	12fJ	.
12EE-L	12G-L	.
12BB-	12B-	.
12E-J	12g-J	.
=127	=127	=127
12FFL	12A-L	fp
12BB-	12B-	.
12FJ	12a-J	.
12FFL	12A-L	.
12BB-	12B-	.
12FJ	12a-J	.
12FFL	12A-L	.
12BB-	12B-	.
12FJ	12a-J	.
=128	=128	=128
12FFL	12A-L	.
12BB-	12B-	.
12FJ	12a-J	.
12FFL	12A-L	.
12BB-	12B-	.
12FJ	12a-J	.
12FFL	12A-L	.
12BB-	12B-	.
12FJ	12a-J	.
!!LO:LB:g=original
=129	=129	=129
12EE-L	12G-L	.
12BB-	12B-	.
12E-J	12g-J	.
12EE-L	12G-L	.
12BB-	12B-	.
12E-J	12g-J	.
12EE-L	12G-L	.
12BB-	12B-	.
12E-J	12g-J	.
=130	=130	=130
12EE-L	12G-L	.
12BB-	12B-	.
12E-J	12g-J	.
12DDnL	12FL	.
12BB-	12B-	.
12DnJ	12fJ	.
12EE-L	12G-L	.
12BB-	12B-	.
12E-J	12g-J	.
=131	=131	=131
12CC-L	12A-L	fp
12EE-	12e-	.
12C-J	12a-J	.
12CC-L	12A-L	.
12EE-	12e-	.
12C-J	12a-J	.
12CC-L	12A-L	.
12EE-	12e-	.
12C-J	12a-J	.
=132	=132	=132
12CC-L	12A-L	.
12EE-	12e-	.
12C-J	12a-J	.
12CC-L	12A-L	.
12EE-	12e-	.
12C-J	12a-J	.
12BBB-L	12B-L	.
12EE-	12e-	.
12BB-J	12b-J	.
!!LO:LB:g=original
=133	=133	=133
12AAA-L	12c-L	sf
12EE-	12e-	.
12AA-J	12cc-J	.
12AAA-L	12c-L	.
12EE-	12e-	.
12AA-J	12cc-J	.
12AAA-L	12c-L	.
12EE-	12e-	.
12AA-J	12cc-J	.
=134	=134	=134
12BBB-L	12dnL	sf
12FF	12a-	.
12BB-J	12ddnJ	.
12BBB-L	12dL	.
12FF	12a-	.
12BB-J	12ddJ	.
12BBB-L	12dL	.
12FF	12a-	.
12BB-J	12ddJ	.
=135	=135	=135
12EE-L	12e-L<	<
12BB-	12g-	.
12E-J	12ee-J	.
12EE-L	12e-L<	.
12BB-	12g-	.
12E-J	12ee-J	.
12DDnL	12fL	.
12BB-	12b-	.
12DnJ	12ffJ	.
=136	=136	=136
12EE-L	12g-L	.
12BB-	12b-	.
12E-J	12gg-J	.
12EE-L	12g-L	.
12BB-	12b-	.
12E-J	12gg-J	.
12CC-L	12anL	.
12EE-	12gg-	.
12C-J	12aanJ	[[
!!LO:LB:g=original
=137	=137	=137
12BBB-L	12b-L	ff
12EE-	12gg-	.
12BB-J	12bb-J	.
12BBB-L	12b-L	.
12EE-	12gg-	.
12BB-J	12bb-J	.
12BBB-L	12b-L	.
12EE-	12gg-	.
12BB-J	12bb-J	.
=138	=138	=138
12BBB-L	12ddnL	.
12FF	12aa-	.
12BB-J	12dddnJ	.
12BBB-L	12ddL	.
12FF	12aa-	.
12BB-J	12dddJ	.
12BBB-L	12ddL	.
12FF	12aa-	.
12BB-J	12dddJ	.
=139	=139	=139
12EE-L	4ee- 4gg- 4eee-	.
12BB-	.	.
12E-J	.	.
12EE-L	4r	.
12BB-	.	.
12E-J	.	.
12EE-L	4r	.
12BB-	.	.
12E-J	.	.
=140	=140	=140
12EE-L	4r	.
12BB-	.	.
12E-J	.	.
12EE-L	(>4g-	pp
12BB-	.	.
12E-J	.	.
12EE-L	4f	.
12BB-	.	.
12E-J	.	.
!!LO:LB:g=original
=141	=141	=141
*	*^	*
12EE-L	2e-	[2.F [2.A-	.
12C-	.	.	.
12DnJ	.	.	.
12EE-L	.	.	.
12C-	.	.	.
12DJ	.	.	.
12EE-L	4dn	.	.
12C-	.	.	.
12DJ	.	.	.
=142	=142	=142	=142
12EE-L	2e-)	2.F] 2.A-]	.
12C-	.	.	.
12DnJ	.	.	.
12EE-L	.	.	.
12C-	.	.	.
12DJ	.	.	.
12EE-L	4f	.	.
12C-	.	.	.
12DJ	.	.	.
=143	=143	=143	=143
12EE-L	[2.B-	[2.G-	.
12BB-	.	.	.
12E-J	.	.	.
12EE-L	.	.	.
12BB-	.	.	.
12E-J	.	.	.
12EE-L	.	.	.
12BB-	.	.	.
12E-J	.	.	.
=144	=144	=144	=144
12EE-L	4B-]	2.G-]	.
12BB-	.	.	.
12E-J	.	.	.
12EE-L	(4g-	.	.
12BB-	.	.	.
12E-J	.	.	.
12EE-L	4f	.	.
12BB-	.	.	.
12E-J	.	.	.
!!LO:LB:g=original
=145	=145	=145	=145
12EE-L	2e-	[2.F [2.A-	.
12C-	.	.	.
12DnJ	.	.	.
12EE-L	.	.	.
12C-	.	.	.
12DJ	.	.	.
12EE-L	4dn	.	.
12C-	.	.	.
12DJ	.	.	.
=146	=146	=146	=146
12EE-L	2e-)	2.F] 2.A-]	.
12C-	.	.	.
12DnJ	.	.	.
12EE-L	.	.	.
12C-	.	.	.
12DJ	.	.	.
12EE-L	4f	.	.
12C-	.	.	.
12DJ	.	.	.
*	*v	*v	*
=147	=147	=147
[2.EE- [2.BB-	[2.B-	ppp
=148	=148	=148
2.EE-] 2.BB-]	2.B-]	.
=149	=149	=149
2.r	2.e-	.
=150	=150	=150
2.r	2.gn	.
!!LO:TX:rj:b:i:D.C.\nAllegro\nsin al Fine
=||	=||	=||
*-	*-	*-
!!!RDF**kern: N = linked
!!!RDF**kern: > = above
!!!RDF**kern: < = below
!!!verovio: beamFrenchStyle
!!!LOR: Durand 1915, plates 9327/9328, Paul Dukas, ed.
!!!PED: Dukas, Paul
!!!URL-github: https://github.com/craigsapp/beethoven-piano-sonatas/blob/main/kern/sonata04-3.krn
!!!URL-vhv: https://verovio.humdrum.org/?file=beethoven/sonatas/sonata04-3.krn
!!!URL-pdf: https://github.com/craigsapp/beethoven-piano-sonatas/blob/master/reference-edition/sonata04-3.pdf
!!!ENC: Craig Stuart Sapp
!!!END: 2008/02/10
!!!EED: Craig Stuart Sapp
!!!EEV: 2022/05/01
